icons/entity/icon_cashback_m_black.svg

<svg height="24" viewBox="0 0 24 24" width="24" xmlns="http://www.w3.org/2000/svg"><g fill="none" fill-rule="evenodd"><path d="m0 0h24v24h-24z"/><path d="m11.5 5.5c-4.97056275 0-9 4.02943725-9 9v5.144c0 2.12961 1.72639 3.856 3.856 3.856h11.288c2.12961 0 3.856-1.72639 3.856-3.856v-5.144c0-4.97056275-4.0294373-9-9-9z" stroke="#0b1f35"/><path d="m9.81818182 14.6363636c1.00254548 0 1.81818178-.8156363 1.81818178-1.8181818 0-1.0025454-.8156363-1.8181818-1.81818178-1.8181818-1.00254546 0-1.81818182.8156364-1.81818182 1.8181818 0 1.0025455.81563636 1.8181818 1.81818182 1.8181818zm0-2.9090909c.60249248 0 1.09090908.4884167 1.09090908 1.0909091 0 .6024925-.4884166 1.0909091-1.09090908 1.0909091-.60249246 0-1.09090909-.4884166-1.09090909-1.0909091 0-.6024924.48841663-1.0909091 1.09090909-1.0909091zm4.36363638 3.6363637c-1.0025455 0-1.8181818.8156363-1.8181818 1.8181818 0 1.0025454.8156363 1.8181818 1.8181818 1.8181818 1.0025454 0 1.8181818-.8156364 1.8181818-1.8181818 0-1.0025455-.8156364-1.8181818-1.8181818-1.8181818zm0 2.9090909c-.6024925 0-1.0909091-.4884167-1.0909091-1.0909091 0-.6024925.4884166-1.0909091 1.0909091-1.0909091.6024924 0 1.0909091.4884166 1.0909091 1.0909091 0 .6024924-.4884167 1.0909091-1.0909091 1.0909091zm-5.16909093-.352 5.42363633-6.316.5516364.4738182-5.42363636 6.3163636z" fill="#0b1f35" fill-rule="nonzero" opacity=".3"/><path d="m14.644 23.9473684c2.4057524 0 4.356-1.9502476 4.356-4.356v-5.1176842c0-4.9034303-3.7252626-8.93677891-8.5-9.42425791.320113-.03268208.6449432-.04942629.9736842-.04942629h1.0526316c5.2321713 0 9.4736842 4.2415129 9.4736842 9.4736842v5.1176842c0 2.4057524-1.9502476 4.356-4.356 4.356z" fill="#0b1f35" opacity=".3"/><path d="m7.55074286 1.93779046 2.22638096 3.56220954h4.44575238l1.8353951-2.9366322c-.8145309.03481502-1.5221303.01254253-2.1243532-.06775385-.184263-.0245684-.3685443-.06374669-.5636071-.11795338-.1730128-.04807912-.3475304-.10555322-.5723792-.18625192-.0642038-.02304289-.4537133-.16589727-.570689-.20741375-.9312591-.33051831-1.683161-.4839949-2.7272428-.4839949-1.15152128 0-1.76616757.17985646-1.94925714.43779046z" stroke="#0b1f35"/></g></svg>

<svg xmlns="http://www.w3.org/2000/svg" width="24" height="24" viewBox="0 0 24 24">
  <g fill="none" fill-rule="evenodd">
    <polygon points="0 0 24 0 24 24 0 24"/>
    <path stroke="#0B1F35" d="M11.5,5.5 C6.52943725,5.5 2.5,9.52943725 2.5,14.5 L2.5,19.644 C2.5,21.77361 4.22639,23.5 6.356,23.5 L17.644,23.5 C19.77361,23.5 21.5,21.77361 21.5,19.644 L21.5,14.5 C21.5,9.52943725 17.4705627,5.5 12.5,5.5 L11.5,5.5 Z"/>
    <path fill="#0B1F35" fill-rule="nonzero" d="M9.81818182,14.6363636 C10.8207273,14.6363636 11.6363636,13.8207273 11.6363636,12.8181818 C11.6363636,11.8156364 10.8207273,11 9.81818182,11 C8.81563636,11 8,11.8156364 8,12.8181818 C8,13.8207273 8.81563636,14.6363636 9.81818182,14.6363636 Z M9.81818182,11.7272727 C10.4206743,11.7272727 10.9090909,12.2156894 10.9090909,12.8181818 C10.9090909,13.4206743 10.4206743,13.9090909 9.81818182,13.9090909 C9.21568936,13.9090909 8.72727273,13.4206743 8.72727273,12.8181818 C8.72727273,12.2156894 9.21568936,11.7272727 9.81818182,11.7272727 Z M14.1818182,15.3636364 C13.1792727,15.3636364 12.3636364,16.1792727 12.3636364,17.1818182 C12.3636364,18.1843636 13.1792727,19 14.1818182,19 C15.1843636,19 16,18.1843636 16,17.1818182 C16,16.1792727 15.1843636,15.3636364 14.1818182,15.3636364 Z M14.1818182,18.2727273 C13.5793257,18.2727273 13.0909091,17.7843106 13.0909091,17.1818182 C13.0909091,16.5793257 13.5793257,16.0909091 14.1818182,16.0909091 C14.7843106,16.0909091 15.2727273,16.5793257 15.2727273,17.1818182 C15.2727273,17.7843106 14.7843106,18.2727273 14.1818182,18.2727273 Z M9.01272727,17.9207273 L14.4363636,11.6047273 L14.988,12.0785455 L9.56436364,18.3949091 L9.01272727,17.9207273 Z" opacity=".3"/>
    <path fill="#0B1F35" d="M14.644,23.9473684 C17.0497524,23.9473684 19,21.9971208 19,19.5913684 L19,14.4736842 C19,9.5702539 15.2747374,5.53690529 10.5,5.04942629 C10.820113,5.01674421 11.1449432,5 11.4736842,5 L12.5263158,5 C17.7584871,5 22,9.2415129 22,14.4736842 L22,19.5913684 C22,21.9971208 20.0497524,23.9473684 17.644,23.9473684 L14.644,23.9473684 Z" opacity=".3"/>
    <path stroke="#0B1F35" d="M7.55074286,1.93779046 L9.77712382,5.5 L14.2228762,5.5 L16.0582713,2.5633678 C15.2437404,2.59818282 14.536141,2.57591033 13.9339181,2.49561395 C13.7496551,2.47104555 13.5653738,2.43186726 13.370311,2.37766057 C13.1972982,2.32958145 13.0227806,2.27210735 12.7979318,2.19140865 C12.733728,2.16836576 12.3442185,2.02551138 12.2272428,1.9839949 C11.2959837,1.65347659 10.5440818,1.5 9.5,1.5 C8.34847872,1.5 7.73383243,1.67985646 7.55074286,1.93779046 Z"/>
  </g>
</svg>
